X: 154
T:Julian's Jig
% Nottingham Music Database
S:Dennis Salter, via Phil Rowe
M:6/8
K:C
"C"ceg ceg|"F"a2a a3|"C"gec "Am"cBc|"Dm"d3 "G7"e2d|
"C"ceg ceg|"F"a2a a3|"C"g2e "G7"fdB|1"C"c3 "G7"e2d:|2"C"c3 "E7"B3||
"Am"A^GA cBA|"E7"^GAB E^FG|"Am"A^GA cBA|"E7"B3 -B2B|"Am"A^GA cBA|
"E7"^GAB e2d|"C"c2g "F"fed|"C"e3 "E7"e3|"Am"e^de a^ga|"E7"^ge^d eB=d|
"Am"cz2"D7"Az2|"G"G3 "E7"^G3|"A7"A=ce g2^f|"Dm"f2A ABc|"G7"B2G e2d|"C"c3 -c2||<end>
<start>
